usr/share/icons/biglinux-icons-material/16/actions/quickopen-class.svg

<svg xmlns="http://www.w3.org/2000/svg" viewBox="0 0 16 16"><path d="M5 2 3 5h1v2l2-3H5V2zm5 0v1H8v10h2v1h3v-3h-3v1H9V4h1v1h3V2h-3z" style="fill:currentColor;fill-opacity:1;stroke:none;color:#dedede"/></svg>

<svg xmlns="http://www.w3.org/2000/svg" viewBox="0 0 16 16">
  <defs id="defs3051">
    <style type="text/css" id="current-color-scheme">
      .ColorScheme-Text {
        color:#dedede;
      }
      </style>
  </defs>
 <path 
     style="fill:currentColor;fill-opacity:1;stroke:none" 
     d="M 5 2 L 3 5 L 4 5 L 4 7 L 6 4 L 5 4 L 5 2 z M 10 2 L 10 3 L 8 3 L 8 13 L 10 13 L 10 14 L 13 14 L 13 11 L 10 11 L 10 12 L 9 12 L 9 4 L 10 4 L 10 5 L 13 5 L 13 2 L 10 2 z "
     class="ColorScheme-Text"/>
</svg>
